public/images/icon-close.svg

<svg height="21" viewBox="0 0 21 21" width="21" xmlns="http://www.w3.org/2000/svg"><path d="m10.131728 8.71751442 6.7175144-6.71751442 1.4142136 1.41421356-6.7175145 6.71751444 6.7175145 6.7175144-1.4142136 1.4142136-6.7175144-6.7175145-6.71751444 6.7175145-1.41421356-1.4142136 6.71751442-6.7175144-6.71751442-6.71751444 1.41421356-1.41421356z" fill="#fff" fill-rule="evenodd"/></svg>

<?xml version="1.0" encoding="UTF-8"?>
<svg width="21px" height="21px" viewBox="0 0 21 21" version="1.1" xmlns="http://www.w3.org/2000/svg" xmlns:xlink="http://www.w3.org/1999/xlink">
    <!-- Generator: Sketch 52 (66869) - http://www.bohemiancoding.com/sketch -->
    <title>icon-close</title>
    <desc>Created with Sketch.</desc>
    <g id="icon-close" stroke="none" stroke-width="1" fill="none" fill-rule="evenodd">
        <path d="M10.131728,8.71751442 L16.8492424,2 L18.263456,3.41421356 L11.5459415,10.131728 L18.263456,16.8492424 L16.8492424,18.263456 L10.131728,11.5459415 L3.41421356,18.263456 L2,16.8492424 L8.71751442,10.131728 L2,3.41421356 L3.41421356,2 L10.131728,8.71751442 Z" id="Combined-Shape" fill="#FFFFFF"></path>
    </g>
</svg>
